Flat-Remix-Light/panel/indicator-keyboard-Mk.svg

<svg xmlns="http://www.w3.org/2000/svg" width="22" height="22" version="1.1">
 <defs>
  <style id="current-color-scheme" type="text/css">
   .ColorScheme-Text { color:#31363b; } .ColorScheme-Highlight { color:#3daee9; }
  </style>
 </defs>
 <rect style="opacity:0" width="22" height="22" x="0" y="0"/>
 <path style="fill:none;stroke:currentColor;stroke-width:1.99999976;stroke-linecap:round;stroke-linejoin:round" class="ColorScheme-Text" d="m 9.9995852,15 0,-8.0000003 m -5.9999998,0 2.9999999,3.9999983 2.9999999,-3.9999983 M 3.9995854,15 l 0,-8.0000003"/>
 <path style="fill:none;stroke:currentColor;stroke-width:1.99999976;stroke-linecap:round" class="ColorScheme-Text" d="M 18.000001,15 13.999999,9.9999994 m 4.000002,-2.9999997 -4.000002,5.0000013 m 0,2.999999 0,-8.0000003"/>
</svg>

<svg xmlns="http://www.w3.org/2000/svg" width="12pt" height="12pt" version="1.1" viewBox="0 0 12 12">
 <g>
  <path style="fill:none;stroke-width:2;stroke-linecap:round;stroke-linejoin:round;stroke:rgb(19.215686%,21.176471%,23.137255%)" d="M 10 15 L 10 7 M 4 7 L 7 11 L 10 7 M 4 15 L 4 7" transform="matrix(0.5,0,0,0.5,0.5,0.5)"/>
  <path style="fill:none;stroke-width:2;stroke-linecap:round;stroke:rgb(19.215686%,21.176471%,23.137255%)" d="M 18 15 L 14 10 M 18 7 L 14 12 M 14 15 L 14 7" transform="matrix(0.5,0,0,0.5,0.5,0.5)"/>
 </g>
</svg>
